src/images/icons/icon-cart.svg

<svg width="16" height="15" viewBox="0 0 16 15" fill="none" xmlns="http://www.w3.org/2000/svg">
<path d="M15.3 5.35693L11.8 5.55693L8.6 0.656934C8.5 0.456934 8.2 0.356934 8 0.356934C7.8 0.356934 7.5 0.456934 7.4 0.656934L4.2 5.55693H0.7C0.3 5.55693 0 5.85693 0 6.25693C0 6.35693 0 6.35693 0 6.45693L1.9 13.2569C2.1 13.9569 2.6 14.3569 3.3 14.3569H12.7C13.4 14.3569 13.9 13.9569 14.1 13.2569L16 6.35693C16 6.25693 16 6.25693 16 6.15693C16 5.75693 15.7 5.35693 15.3 5.35693ZM8 2.25693L10.2 5.45693H5.9L8 2.25693Z" fill="black"/>
</svg>

<svg xmlns="http://www.w3.org/2000/svg" width="16" height="15" fill="none"><path fill="#000" d="m15.3 5.36-3.5.2L8.6.66c-.1-.2-.4-.3-.6-.3-.2 0-.5.1-.6.3l-3.2 4.9H.7c-.4 0-.7.3-.7.7v.2l1.9 6.8c.2.7.7 1.1 1.4 1.1h9.4c.7 0 1.2-.4 1.4-1.1l1.9-6.9v-.2c0-.4-.3-.8-.7-.8ZM8 2.26l2.2 3.2H5.9L8 2.26Z"/></svg>
